X:1
T:Dubrovnik, LMD
T:Dubrovnik, LMD
T:From Sparkling Diamonds, 1884
T:Public Domain Courtesy of the Cyber Hymnal™
C:From Sparkling Diamonds, 1884
Z:Public Domain
Z:Courtesy of the Cyber Hymnal™
%%score ( 1 2 ) ( 3 4 )
L:1/8
Q:1/4=100
M:4/4
K:Bb
V:1 treble 
V:2 treble 
V:3 bass 
V:4 bass 
V:1
 F2 | [FB]3 [FB] (BA) (GF) | [FB]2 (d>c) [DB]2 z [DF] | ([EG][FA]) ([GB][EG]) [DF]2 [FB]2 | %4
 [Fd]2 (cB) [Fc]2 z F | [FB]3 [FB] (BA) (GF) | [FB]2 (d>c) [DB]2 z [DB] | %7
 [Fc]3 [Fc] (cd) ([FB][DG]) | [CF]2 [C=E]2 [CF]2 z F | [Fc]3 [FB] (AG) (FE) | %10
 [B,D]2 [CE]2 [DB]2 z [DF] | [DF]2 (GA) [FB]2 [Fc]2 | [Fd]2 (cB) [Fc]2 z F | %13
 ([EG][FA]) ([GB][EG]) [DF]2 [FB]2 | [Fc]2 (cB) [FA]2 z F | (GA) (Bc) (dB) (ec) | %16
 [FB]2 (d>c) [FB]2 |] %17
V:2
 F2 | x4 F2 C2 | x2 E2 x4 | x8 | x2 =E2 x2 F x | x4 F2 C2 | x2 E2 x4 | x4 F2 x2 | x7 F | x4 F2 C2 | %10
 x8 | x2 E2 x4 | x2 =E2 x2 F x | x8 | x2 F2 x2 F x | E2 F2 F2 G2 | x2 [FA]2 x2 |] %17
V:3
 F,2 | [D,B,]3 [B,,D] (DC) ([F,B,][E,A,]) | [D,B,]2 [F,A,]2 [B,,B,]2 z [B,,B,] | %3
 [E,B,]2 [E,B,]2 [B,,B,]2 [D,B,]2 | B,2 [G,B,]2 [F,A,]2 z [F,A,] | %5
 [D,B,]3 [B,,D] (DC) ([F,B,][E,A,]) | [D,B,]2 [F,A,]2 [B,,B,]2 z [B,,B,] | %7
 [F,A,]3 [F,A,] (A,B,) (DB,) | [C,A,]2 [C,G,]2 [F,A,]2 z F, | [F,E]3 [F,D] (CB,) [F,A,]2 | %10
 [B,,F,]2 [B,,B,]2 [B,,B,]2 z [B,,B,] | [B,,B,]2 ([E,B,][C,F,]) [D,F,]2 [F,A,]2 | %12
 B,2 [G,B,]2 [F,A,]2 z [D,B,] | [E,B,]2 [E,B,]2 [B,,B,]2 [B,,D]2 | [F,E]2 (ED) [F,C]2 z [D,B,] | %15
 ([E,B,][C,F,]) ([D,F,][F,A,]) (B,D) (CE) | [F,D]2 [F,E]2 [B,,D]2 |] %17
V:4
 F,2 | x4 F,2 x2 | x8 | x8 | B,2 x6 | x4 F,2 x2 | x8 | x4 F,2 B,,2 | x7 F, | x4 F,2 x2 | x8 | x8 | %12
 B,2 x6 | x8 | x2 F,2 x4 | x4 B,2 E,2 | x6 |] %17

